X:1
T:Title
%%score { ( 1 3 4 ) | ( 2 5 ) }
L:1/8
M:6/8
K:F
V:1 treble nm="Grand Piano"
V:3 treble 
V:4 treble 
V:2 bass 
V:5 bass 
V:1
 z3 z2[Q:1/4=95] c | c2 A A2 G | F3 C2 F | [EG]2 [EG] [EG]2 [EG] | [FA]3- [FA]2 [Ac] | %5
 [Ac]2 A A2 G | F3 C2 A | G2 c d2 =B | [Ec]3- [Ec]2 [EG] | [_EG]2 [EG] [DG]2 [DA] | %10
 [DB]3 [^CA]2 [EG] | [DF]2 [DF] [EG]2 [EG] | A3- A2 A | A2 A B2 c | [Fe]3 [Fd]2 [Fd] | %15
 [Fc]2 [Fc] [Ec]2 [CE] |[M:5/8] [CF]-[CF]- [CF]3 |[M:1/8] [Ac] |[M:3/4] [Ac]4 z2 | [Ac]3 A2 c | %20
 d4 z2 | [Af]3 [Ac]2 [Ac] | [Ac]2 [_A=B] [=Ac]2 [_Bd] | [Ac]4- [Ac][Ac] | d2 c B2 A | %25
 [EG]4- [EG][EG] | A2 A A2 B | c2 =B c2 c | d3 e3 | f4 e[Fd] | [Fc]3 [Fc]3 | [Ec]6 | E6 | %33
[M:5/8] F-F- F3 |] %34
V:2
 z3 z2 [F,A,F] | [F,A,F]2 [F,CF] [F,CF]2 [F,B,C] | [F,A,C]3 [F,A,]2 [F,A,C] | %3
 [C,C]2 [C,C] [C,C]2 [C,C] | [F,C]3- [F,C]2 [F,C] | [F,C]2 [F,CF] [F,CF]2 [F,B,C] | %6
 [F,A,C]3 [F,A,]2[K:treble] [F,CF] | [G,CE]2 [G,EG] [G,FG]2 [G,DF] | [C,C]3- [C,C]2 [C,C] | %9
 [C,G,]2 [C,G,] [B,,G,]2 [A,,^F,] | [G,,G,]3 [A,,E,]2 [^C,A,] | [D,A,]2 [D,A,] [C,C]2 [C,C] | %12
 [F,CF]3- [F,CF]2 [F,CF] | [F,CF]2 [F,CF] [G,CE]2 [F,A,F] | [B,,C]3 [B,,B,]2 [B,,B,] | %15
 [C,A,]2 [C,A,] [C,G,]2 [C,B,] |[M:5/8] [F,A,]-[F,A,]- [F,A,]3 |[M:1/8] [F,F] | %18
[M:3/4] [F,F]2 .F,2[K:treble] B[F,F] | [F,F]3 [F,CF]2 [A,CF] | [B,F]2 .B,2 C[B,DF] | %21
 [F,C]3 [F,F]2 [F,F] | [F,F]2 [F,F][K:treble] [F,F]2 [F,F] | [F,F]4- [F,F][F,F] | %24
 [B,F]2 [A,CF][K:bass] [G,CE]2 [F,CF] | [C,C]4- [C,C][C,C] | [F,CF]2 [F,CF] [F,CF]2 [F,G,F] | %27
 [F,A,F]2 [F,_A,F] [F,=A,F]2 [F,A,F] | [B,F]3 [B,CF]3 | [B,DF]4 [B,CF][K:bass][B,,B,] | %30
 [C,A,]3 [C,A,]3 | [C,G,]6 | [C,B,C]6 |[M:5/8] [F,A,C]-[F,A,C]- [F,A,C]3 |] %34
V:3
 x6 | x6 | x6 | x6 | x6 | x6 | x6 | x6 | x6 | x6 | x6 | x6 | x6 | x6 | x6 | x6 |[M:5/8] x5 | %17
[M:1/8] x |[M:3/4] z2 .F2 d[Ac] | x6 | z2 .F2 ef | x6 | x6 | x6 | x6 | x6 | x6 | x6 | x6 | x6 | %30
 x6 | x6 | x6 |[M:5/8] x5 |] %34
V:4
 x6 | x6 | x6 | x6 | x6 | x6 | x6 | x6 | x6 | x6 | x6 | x6 | x6 | x6 | x6 | x6 |[M:5/8] x5 | %17
[M:1/8] x |[M:3/4] z2 z .F3 | x6 | z2 z .F3 | x6 | x6 | x6 | x6 | x6 | x6 | x6 | x6 | x6 | x6 | %31
 x6 | x6 |[M:5/8] x5 |] %34
V:5
 x6 | x6 | x6 | x6 | x6 | x6 | x5[K:treble] x | x6 | x6 | x6 | x6 | x6 | x6 | x6 | x6 | x6 | %16
[M:5/8] x5 |[M:1/8] x |[M:3/4] z2 z .F,3[K:treble] | x6 | z2 z .B,3 | x6 | x3[K:treble] x3 | x6 | %24
 x3[K:bass] x3 | x6 | x6 | x6 | x6 | x5[K:bass] x | x6 | x6 | x6 |[M:5/8] x5 |] %34

